X:1
T:The Rains of Spring
M:3/4
L:1/4
C:Harry Ferguson
H:6/10/2003
K:D
|: FGA | FGA | de>d | A2 F/G/ |[1 ABA | ABA | AGF | FED :|
[2 ABF | EDA | D3 | DFA ||
| d3 | c3 | Bcd | F3 | FGA | ABA | AGF | EDF |
d3 | e3 | fed | A2 F/G/ | AdF | EDA | D3 | D3 |

